!!!!SEGMENT: pl-wnifc--6653-n_gall-jan-karol--kiedy-bylam-malenska.krn
!!!cenid: 18xx:4012
!!!COM: Gall, Jan Karol
!!!COM-rismID: pe50042628
!!!CDT: 1856-1912
!!!CNT: Polish
!!!OTL: Kiedy byłam maleńska
!!!PDT:
!!!AGN:
!!!SMS-siglum: PL-Wnifc
!!!SMS-shelfmark: 6653/n
!!!SMS-shelfwork: W
!!!SMS-variant:
!!!SMS-altvar:
!!!NIFC-rismSourceID: 1001152743
!!!NIFC-rismChildID: 1001152743
!!!NIFC-islandoraID: nifc:213100
!!!URL-pdf-islandora: https://repozytorium.nifc.pl/islandora/object/nifc%3A213100/datastream/PDF/view
!!!URL-scan: https://polish.musicsources.pl/pl/lokalizacje/galeria/druki-muzyczne/16886 @EN{Scan on Polish Music Sources Website} @PL{Skany w portalu Dziedzictwo Muzyki Polskiej w otwartym dostępie}
!!!IIIF:
!!!ONB-nifc:
!!!AIN: 2 piano 1 vox
!!!key: F
**kern	**kern	**dynam	**kern	**text
*part3	*part2	*part2	*part1	*part1
*staff3	*staff2	*	*staff1	*staff1
*I"Pianoforte	*I"Fortepian.	*	*I"Głos.	*
*	*I'pf	*	*I'voce umana	*
*Ipiano	*Ipiano	*	*Ivox	*
*ICklav	*ICklav	*	*ICvox	*
*clefF4	*clefG2	*	*clefG2	*
*k[b-]	*k[b-]	*	*k[b-]	*
*F:	*F:	*	*F:	*
*M6/8	*M6/8	*	*M6/8	*
=1	=1	=1	=1	=1
!	!	!	!LO:TX:a:B:t=Con moto.	!
8.A\L	8.a\L	mf	2.r	.
16c\K	16cc\K	.	.	.
8A\J	8a\J	.	.	.
8F\L	8f/L	.	.	.
8D\	8d/	.	.	.
8C\J	8c/J	>	.	.
=2	=2	=2	=2	=2
8.A\L	8.a\L	.	2.r	.
16c\K	16cc\K	.	.	.
8A\J	8a\J	.	.	.
8F\L	8f/L	]	.	.
8D\	8d/	.	.	.
8C\J	8c/J	.	.	.
=3	=3	=3	=3	=3
8.A\L	8.a\L	p	8.a/L	Kie-
16c\K	16cc\K	.	16cc/Jk	.
8A\J	8a\J	.	8a/	-dy
8F\L	8f/L	.	8f/	by-
8D\	8d/	.	8d/	-łam
8C\J	8c/J	.	8c/	ma-
=4	=4	=4	=4	=4
*	*^	*	*	*
(4.FF/	4.a/	[4.c\ [4.f	.	4.a/	-leń-
8AA/)	8cc/	8c\] 8f]	.	8cc\	-ka,
8r	8r	8ryy	.	8r	.
8F\	8a/	8f\	.	8a/	ma-
=5	=5	=5	=5	=5	=5
4d\	4b-/	4f\	.	4b-\	-leń-
8c#X\	8a/	8f\	.	8a/	-ka
8d\L	8b-/L	4.f\	.	8b-\L	u
8A\	8ccn/	.	.	8cc\J	.
8B-\J	8dd/J	.	.	8dd\	-ro-
!LO:LB:g=original	!LO:LB:g=original	!	!	!LO:LB:g=original	!
=6	=6	=6	=6	=6	=6
*^	*	*	*	*	*
(4.A/	(4.A\	(4.cc/	[4.f\	.	4.cc\	-dzi-
8c/)	8F\)	8a/)	8f\]	.	8a/	-ny
8r	8ryy	8r	8ryy	.	8r	.
8c/	8F\	8a/	8f\	.	8a/	Ach!
=7	=7	=7	=7	=7	=7	=7
8c/	8G\	8b-/	8e\	.	8.b-/L	nie
8r	4ryy	8r	4ryy	.	.	.
.	.	.	.	.	16a/Jk	.
8r	.	8r	.	.	8b-\	chciał,
8c/	8B-\	8g/	8e\	.	8g/L	nie
8r	4ryy	8r	4ryy	.	8a/J	.
8r	.	8r	.	.	8b-\	chciał
=8	=8	=8	=8	=8	=8	=8
8c/	8A\	8cc/	8f\	.	8.cc\	pa-
8r	4ryy	8r	4ryy	.	.	.
.	.	.	.	.	16bn\	-trzeć
8r	.	8r	.	.	8cc\	nikt
4c/	8F\L	8a/L	4f\	.	8a/L	na
.	8G\	8b-X/	.	.	8b-X/J	.
8c/	8A\J	8cc/J	8f\	.	8cc\	mnie
=9	=9	=9	=9	=9	=9	=9
8.d/L	8.G\L	8.bn/L	8.f\L	.	8.bn\	nikt
16c/K	16G\K	16a/K	16f\K	.	16a/	prócz
8Bn/J	8G\J	8g/J	8f\J	.	8g/	ma-
8B/L	4G\	8ff/L	4f\	.	8ff\	-łe-
8c/	.	8a/	.	.	8a/	-go
8d/J	8G\	8b/J	8f\	.	8b\	chłop-
*v	*v	*	*	*	*	*
=10	=10	=10	=10	=10	=10
4C/	(8dd/	(8f\ 8b-	.	8dd\	-czy-
.	[4cc/)	[4e\) [>4g	.	8cc\	-ny
(8GG/	.	.	.	8r	.
8C/)	8cc/]	8e\] 8g]	.	4r	.
8r	8r	8ryy	.	.	.
8c\	8cc/	8e\ 8g	.	8r	.
!LO:LB:g=original	!LO:LB:g=original	!	!	!LO:LB:g=original	!
=11	=11	=11	=11	=11	=11
4.B-X\	8.dd/L	4.e\ 4.g	.	8.dd\L	te-
.	16cc#X/K	.	.	16cc#X\Jk	.
.	8dd/J	.	.	8dd\	-raz
4.e\	8g/L	4.g\	.	8g/	kie-
.	8a/	.	.	8a/	-dy
.	8b-/J	.	.	8b-\	do-
=12	=12	=12	=12	=12	=12
4.A\	4.ccn/	8.g\L	.	(4.ccn\	-ro-
.	.	16f\K	.	.	.
.	.	8e\J	.	.	.
4.d\	8f/L	4.f\	.	8f/L	.
.	8g/	.	.	8g/J)	.
.	8a/J	.	.	8a/	-słam
=13	=13	=13	=13	=13	=13
4.d\ 4.f	8.b-/L	4.d\ 4.f	.	8.b-\	gar-
.	16a/K	.	.	16a/	-ną
.	8b-/J	.	.	8b-\	się
4.B-\	8e/L	4.d\	.	8e/L	chłop-
.	8f/	.	.	8f/J	.
.	8g/J	.	.	8g/	-cy
=14	=14	=14	=14	=14	=14
4.A\	(4.a/	(4d\ 4e	.	(4.a/	mło-
.	.	8c#X\)	.	.	.
4D\	4f/)	4d\	.	4f/)	.
8D\	8a/	8d\ 8f	.	8a/	-de,
=15	=15	=15	=15	=15	=15
4BB-/	4g/	4d\ 4f	.	4g/	Je-
8AA/	8a/	8d\ 8f	.	8a/	-den
8.GG/L	8.b-/L	4d\ 4f	.	8.b-\	chwy-
16AA/K	16a/K	.	.	16a/	-ta
8BB-/J	8g/J	8d\ 8f	.	8g/	za
!LO:LB:g=original	!LO:LB:g=original	!	!	!LO:LB:g=original	!
=16	=16	=16	=16	=16	=16
(4.F\	(4.a/	4.c\ 4.f	.	4.a/	rą-
4.A\)	4.cc/)	4.c\ 4.f	.	4cc\	-czki,
.	.	.	.	8r	.
=17	=17	=17	=17	=17	=17
4D\	4bn/	4f\ 4a	.	4bn\	Dru-
8C/	8cc/	8f\ 8a	.	8cc\	-gi
8.BBn/L	8.dd/L	4f\ 4a	.	8.dd\	głasz-
16C/K	16cc/K	.	.	16cc\	-cze
8D/J	8b/J	8f\ 8a	.	8b\	pod
=18	=18	=18	=18	=18	=18
(4.AA/	(4.cc/	4.e\ 4.a	.	4.cc\	bro-
4.C/)	4.ee/)	4.e\ 4.a	.	4.ee\	-dę,
=19	=19	=19	=19	=19	=19
4F\	4dd/	4a\ 4cc	.	4dd\	trze-
8E\	8ee/	8a\ 8cc	.	8ee\	-ci
8.D\L	8.ff/L	8.a\L 8.cc	.	8.ff\	mó-
16E\K	16ee/K	16a\K 16cc	.	16ee\	-wi
8F\J	8dd/J	8a\J 8cc	.	8dd\	ma-
=20	=20	=20	=20	=20	=20
2.G\	4ee/	4g\ 4cc	.	8ee\L	-leń-
.	.	.	.	8gg\J	.
.	8cc/	8e\ 8g	.	8cc\	-ko,
.	8ee/	8g\ 8cc	.	8ee\L	wez-
.	8r	8ryy	.	8g\J	.
.	8ee/	8g\ 8cc	.	8ee\	-mę
!LO:LB:g=original	!LO:LB:g=original	!	!	!LO:LB:g=original	!
=21	=21	=21	=21	=21	=21
2.GG/	4.dd/	4.f#X\ 4.cc	.	4.dd\	cie-
.	4ee/	4g\ 4bn	.	4ee\	-bie
.	8ffn/	8a\ 8b	.	8ff\	za
=22	=22	=22	=22	=22	=22
16C\LL	(4.ee/	[4.g\ [>4.cc	.	(4.ee\	żo-
(16GG\	.	.	.	.	.
16C\	.	.	.	.	.
16E\	.	.	.	.	.
16G\	.	.	.	.	.
16c\JJ	.	.	.	.	.
8e\)	8gg/)	8g\] 8cc]	.	8gg\)	-nę
8r	8r	8ryy	.	8r	.
8EE/	8cc/	8g\	.	8r	.
=23	=23	=23	=23	=23	=23
4FF/	4dd/	4a\ 4cc	.	4dd\	Nie
8EE/	8ee/	8a\ 8cc	.	8ee\	wiem
8.DD/L	8.ff/L	8.a\L 8.cc	.	8.ff\	co
16EE/K	16ee/K	16a\K 16cc	.	16ee\	mam
8FF/J	8dd/J	8a\J 8cc	.	8dd\	po-
=24	=24	=24	=24	=24	=24
2.GG/	4ee/	4g\ 4cc	.	8ee\L	-wie-
.	.	.	.	8gg\J	.
.	8cc/	8e\ 8g	.	8cc\	-dzieć
.	8ee/	8g\ 8cc	.	8ee\L	w któ-
.	8r	8r	.	8g\J	.
.	8ee/	8g\ 8cc	.	8ee\	-rą
=25	=25	=25	=25	=25	=25
2.GGG/	4.dd/	4.f#X\ 4.cc	.	(4.dd\	spoj-
.	8.ee/L	8.g\L 8.bn	.	8.ee\)	.
.	16b/K	16fn\K 16g	.	16bn\	-rzeć
.	8b/J	8f\J 8g	.	8b\	mam
!LO:LB:g=original	!LO:LB:g=original	!	!	!LO:LB:g=original	!
=26	=26	=26	=26	=26	=26
*^	*	*	*	*	*
4CC/	2ryy	8dd/L	8f\L 8g	.	8dd\	stro-
.	.	8cc/J	8e\J 8g	.	8cc\	-nę
(8GG/	.	8r	4.ryy	.	8r	.
8C/)	.	4r	.	.	4r	.
8r	8ryy	.	.	.	.	.
8c/	8c\	8cc/	8cc\	.	8cc\	Więc
=27	=27	=27	=27	=27	=27	=27
2.F#X/	2.C\	2.a/	2.d#X\	.	4cc\	przyjdz-
.	.	.	.	.	8ddn\	-cie
.	.	.	.	.	8cc\	chłop-
.	.	.	.	.	8b-\	-cy
.	.	.	.	.	8a/	w nie-
=28	=28	=28	=28	=28	=28	=28
4G/	4C\	8b-/L	4e\	.	8b-\	-dzie-
.	.	8g/J	.	.	8g/	-lę,
(8G/	8r	8r	4.ryy	.	8r	.
8c/)	4r	4r	.	.	4r	.
8r	.	.	.	.	.	.
!	!	!	!	!	!LO:TX:a:i:t=poco rallent.	!
8c/	8c\	8cc/	8cc\	.	8cc\	Ach!
=29	=29	=29	=29	=29	=29	=29
2.F#X/	2.C\	2.a/	2.d#X\	.	8cc\	przyjdź-
.	.	.	.	.	16bn\LL	-cie
.	.	.	.	.	16cc\JJ	.
.	.	.	.	.	16ee-X\LL	pod
.	.	.	.	.	16dd\JJ	.
.	.	.	.	.	8cc\L	me
.	.	.	.	.	8b-X\J	.
.	.	.	.	.	8a/	po-
=30	=30	=30	=30	=30	=30	=30
4G/	4C\	8b-/L	4en\	.	8b-\	-ko-
.	.	8g/J	.	.	8g/	-je
(8G/	8r	8r	4.ryy	.	8r	.
8c/)	4r	4r	.	.	4r	.
8r	.	.	.	.	.	.
8C/	8C\	8b-/	8e\ 8g	.	8b-\	Do
!LO:LB:g=original	!LO:LB:g=original	!	!	!	!LO:LB:g=original	!
*v	*v	*	*	*	*	*
=31	=31	=31	=31	=31	=31
!	!	!	!	!LO:TX:a:B:t=a tempo	!
8.GG\L	8.a/L	8.f\L	.	8.a\L	sa-
16c\K	16cc/K	16cc\K	.	16cc\Jk	.
8A\J	8a/J	8a\J	.	8a/	-du
8F\L	8f/L	8f\L	.	8f/L	oj-
8D\	8d/	8d\	.	8d/J	.
8C\J	8c/J	8c\J	.	8c/	-co-
=32	=32	=32	=32	=32	=32
(4.FF/	(4.a/	[4.c\ [4.f	.	4.a/	-we-
8AA/)	8cc/)	8c\] 8f]	.	8cc\	-go
8r	8r	8ryy	.	8r	.
8FF/	8a/	8f\	.	8a/	Tam
=33	=33	=33	=33	=33	=33
4D\	4b-/	4f\	.	4b-\	w kwia-
8C#X/	8a/	8f\	.	8a/	-ty
8D/L	8b-/L	4.f\	.	8b-\L	was
8AA/	8ccn/	.	.	8cc\J	.
8BB-/J	8dd/J	.	.	8dd\	u-
=34	=34	=34	=34	=34	=34
((4.AA/	(4.cc/	[4.f\	.	4.cc\	-stro-
8FF/)) 8C	8a/)	8f\]	.	8a/	-ję
8r	8r	8ryy	.	8r	.
8F\	8cc/	8a\	.	8cc\	a
=35	=35	=35	=35	=35	=35
4.F#X\	4ee-X/	4.a\ 4.cc	.	4ee-X\	ko-
.	8dd/	.	.	8dd\	-mu
4.D\	8cc/L	4.f#X\	.	8cc\	ró-
.	8b-/	.	.	8b-\	-że
.	8a/J	.	.	8a/	bez
!LO:LB:g=original	!LO:LB:g=original	!	!	!LO:LB:g=original	!
=36	=36	=36	=36	=36	=36
4.G\	8b-/L	4g\	.	8b-/L	cier-
.	8g/	.	.	8g/J	.
.	8a/J	8g\	.	8a/	-ni
4.GG/	8b-/L	4g\	.	8b-\L	te-
.	8cc/	.	.	8cc\J	.
.	8b-/J 8dd	8fn\	.	8dd\	-mu
=37	=37	=37	=37	=37	=37
4.C/	4.a/ 4.cc	4.f\	.	4.cc\	dam
4.CC/	4b-/ 4cc	4e\	.	4cc\	ser-
.	8ee/ 8gg	8b-\	.	8gg\	-ce
=38	=38	=38	=38	=38	=38
8FF\L	16ff/LL 16aa	8a\L	.	16aa\LL	mo-
.	16gg/J	.	.	16gg\JJ	.
8f\	8ff/	8ff\	.	8ff\	-je!
8g\J	8gg/J	8gg\J	.	8r	.
8f\L	8ff/L	8ff\L	.	4r	.
8a\	8aa/	8aa\	.	.	.
8c\J	8cc/J	8cc\J	.	8r	.
=39	=39	=39	=39	=39	=39
8f\L	8ff/L	8ff\L	.	2.r	.
8A\	8a/	8a\	.	.	.
8c\J	8cc/J	8cc\J	.	.	.
8F\L	8f/L	8f\L	.	.	.
8A\	8a/	8a\	.	.	.
8D\J	8d/J	8d\J	.	.	.
=40	=40	=40	=40	=40	=40
8C/	8c/	8c\	.	2.r	.
8r	8r	2ryy	.	.	.
8r	8r	.	.	.	.
4r	4r	.	.	.	.
(8CC/	8ee/	8b-\ 8cc	f	.	.
=41	=41	=41	=41	=41	=41
(4.FF/)	[4.ff/	[4.a\ [4.cc	.	2.r;	.
8FFF;</)	8ff;/]	8a\] 8cc]	.	.	.
8r	8r	4ryy	.	.	.
8r	8r	.	.	.	.
*	*v	*v	*	*	*
==	==	==	==	==
*-	*-	*-	*-	*-
!!!RDF**kern: > = above
!!!RDF**kern: < = below
!!!system-decoration: s1[(s2,s3)]
!!!ENC: Filip Voros
!!!END: 2022-08-06
!!!ENC: Julita Ruszuk
!!!END: 2022-09-02
!!!YEC: Copyright 2022 Narodowy Instytut Fryderyka Chopina (https://polishscores.org)
!!!YEM: License CC-BY-4.0 (https://creativecommons.org/licenses/by/4.0)
